assets/companies/light/dell.svg

<svg width="40" height="40" viewBox="0 0 40 40" fill="none" xmlns="http://www.w3.org/2000/svg">
<path d="M18.5994 15.0327L13.6317 18.8544C13.1222 16.9433 11.4656 15.5416 9.42722 15.5416H5.86061V24.3316H9.42722C11.4654 24.3316 13.2486 22.9297 13.6308 21.0189L18.5993 24.8405L23.5679 21.0189V24.3316H29.1723V22.5478H25.4788V15.5417H23.4399V18.8533L18.7264 22.676L17.7069 21.7838L20.0008 19.9999L22.4206 18.0891L21.0197 16.9432L16.3062 20.6368L15.2873 19.7448L20.0008 16.1782L18.5989 15.0324L18.5994 15.0327ZM7.77167 17.3244H9.30056C9.61906 17.3244 9.92972 17.397 10.2163 17.5284C10.503 17.6598 10.7649 17.8505 10.9878 18.0894C11.2108 18.3283 11.3943 18.6144 11.5217 18.9368C11.6491 19.2593 11.7203 19.6181 11.7203 20.0002C11.7202 20.3446 11.6588 20.6864 11.5391 21.0093C11.4216 21.3258 11.2506 21.6164 11.0356 21.8632C10.8206 22.1101 10.5621 22.3133 10.2695 22.4547C9.97694 22.596 9.65083 22.6749 9.30061 22.6749H7.77172L7.77167 17.3244ZM35.5422 22.5483V24.3318H29.9372V15.5418H31.9754V22.5479L35.5422 22.5483ZM20 0C9.04445 0 0 9.04445 0 20C0 30.9556 8.91722 40 20 40C31.0828 40 40 31.0828 40 20C40 8.91722 30.9556 0 20 0ZM20 2.03883C21.242 2.03883 22.4538 2.1635 23.6241 2.40233C24.7808 2.6382 25.9111 2.98823 26.9987 3.44728C28.0669 3.8987 29.0888 4.45288 30.0499 5.102C31.0037 5.74564 31.8935 6.47926 32.7072 7.29278C33.5207 8.10651 34.2543 8.99636 34.898 9.95011C35.5471 10.9112 36.1013 11.9331 36.5527 13.0013C37.0117 14.0889 37.3618 15.2193 37.5977 16.3759C37.8366 17.5463 37.9612 18.758 37.9612 20C37.9612 21.242 37.8365 22.4538 37.5977 23.6241C37.3618 24.7807 37.0118 25.9111 36.5527 26.9987C36.1013 28.0669 35.5471 29.0888 34.898 30.0499C34.2544 31.0037 33.5207 31.8935 32.7072 32.7072C31.8935 33.5207 31.0036 34.2543 30.0499 34.898C29.0888 35.5471 28.0669 36.1013 26.9987 36.5527C25.9111 37.0117 24.7807 37.3618 23.6241 37.5977C22.4537 37.8366 21.242 37.9612 20 37.9612C18.758 37.9612 17.5462 37.8365 16.3759 37.5977C15.219 37.3631 14.0883 37.0136 13.0009 36.5543C11.9327 36.1027 10.9109 35.5484 9.94978 34.8993C8.0377 33.6094 6.39177 31.9636 5.10178 30.0516C4.45277 29.0905 3.8986 28.0686 3.44706 27.0004C2.98802 25.9128 2.638 24.7822 2.40211 23.6254C2.16328 22.4554 2.03861 21.2438 2.03861 20.0016C2.03861 18.7593 2.16328 17.5477 2.40211 16.3777C2.63797 15.2209 2.988 14.0903 3.44706 13.0027C3.8986 11.9345 4.45277 10.9127 5.10178 9.95156C5.7453 8.99774 6.47893 8.10791 7.29256 7.29433C8.10613 6.48071 8.99596 5.74708 9.94978 5.10356C10.9109 4.45455 11.9327 3.90038 13.0009 3.44883C14.0886 2.9898 15.2191 2.63977 16.3759 2.40389C17.5459 2.16506 18.7576 2.04039 19.9998 2.04039L20 2.03883Z" fill="#8B8D98"/>
</svg>

<svg xmlns="http://www.w3.org/2000/svg" width="40" height="40" fill="none" viewBox="0 0 40 40"><path fill="#8B8D98" d="m18.6 15.033-4.968 3.821c-.51-1.91-2.166-3.312-4.205-3.312H5.861v8.79h3.566c2.038 0 3.822-1.402 4.204-3.313l4.968 3.822 4.969-3.822v3.313h5.604v-1.784H25.48v-7.006h-2.04v3.311l-4.713 3.823-1.02-.892L20.002 20l2.42-1.91-1.401-1.147-4.714 3.694-1.019-.892 4.714-3.567zM7.771 17.324H9.3c.318 0 .629.073.915.204.287.132.549.323.772.561.223.24.406.525.534.848a2.93 2.93 0 0 1 .018 2.073 2.8 2.8 0 0 1-.504.853 2.4 2.4 0 0 1-.766.592c-.293.141-.62.22-.97.22H7.773zm27.77 5.224v1.784h-5.605v-8.79h2.038v7.006zM20 0C9.044 0 0 9.044 0 20s8.917 20 20 20 20-8.917 20-20S30.956 0 20 0m0 2.039c1.242 0 2.454.124 3.624.363a17.9 17.9 0 0 1 6.426 2.7 18 18 0 0 1 6.503 7.9 18 18 0 0 1 1.045 3.374c.239 1.17.363 2.382.363 3.624a18 18 0 0 1-.363 3.624 17.9 17.9 0 0 1-2.7 6.426 18 18 0 0 1-7.9 6.503 18 18 0 0 1-3.374 1.045c-1.17.239-2.382.363-3.624.363a18 18 0 0 1-3.624-.363 17.7 17.7 0 0 1-6.426-2.699A17.97 17.97 0 0 1 3.447 27a18 18 0 0 1-1.045-3.375 18 18 0 0 1-.363-3.623c0-1.243.124-2.454.363-3.624a17.9 17.9 0 0 1 2.7-6.426A17.97 17.97 0 0 1 13 3.449a18 18 0 0 1 3.375-1.045A18 18 0 0 1 20 2.04z"/></svg>
